X: 34247
T: Reelin' Bridge, The
R: reel
M: 4/4
K: Cmajor
CD|:EGGF GAcd|egge cGEG|AD~D2 A2de|fedc BGFD|
EGGF GAcd|egge ~c3G|AF~F2 AdcA|1 GAFG ECCD:|2 GAFG ECC2||
|:cBcG EGcd|ecdB cGEG|Ad~d2 fedc|BdG2fedB|
cBcG EGcd|ecdB cegf|ec~c2 GFEG|FAGF ECC2:|

